svgs/thin/engine.svg

<svg xmlns="http://www.w3.org/2000/svg" viewBox="0 0 640 512"><!--! Font Awesome Pro 6.4.0 by @fontawesome - https://fontawesome.com License - https://fontawesome.com/license (Commercial License) Copyright 2023 Fonticons, Inc. --><path d="M416 72c0 4.4-3.6 8-8 8l-96 0v48h24 60.6c12.6 0 25 3.7 35.5 10.7L483.5 173c17.8 11.9 28.5 31.9 28.5 53.3V384c0 35.3-28.7 64-64 64H279.2c-15 0-29.5-5.2-41-14.8l-59-49.2H112c-26.5 0-48-21.5-48-48V264H16v80c0 4.4-3.6 8-8 8s-8-3.6-8-8V168c0-4.4 3.6-8 8-8s8 3.6 8 8v80H64V176c0-26.5 21.5-48 48-48h48H296V80l-96 0c-4.4 0-8-3.6-8-8s3.6-8 8-8H304 408c4.4 0 8 3.6 8 8zM80 248v16 72c0 17.7 14.3 32 32 32h67.2c3.7 0 7.4 1.3 10.2 3.7l59 49.2c8.6 7.2 19.5 11.1 30.7 11.1H448c26.5 0 48-21.5 48-48V226.3c0-16-8-31-21.4-39.9l-51.4-34.3c-7.9-5.3-17.1-8.1-26.6-8.1H336 304 160 112c-17.7 0-32 14.3-32 32v72zm176 8a32 32 0 1 1 64 0 32 32 0 1 1 -64 0zm32 16a16 16 0 1 0 0-32 16 16 0 1 0 0 32zm96-48a32 32 0 1 1 0 64 32 32 0 1 1 0-64zm16 32a16 16 0 1 0 -32 0 16 16 0 1 0 32 0zm-240 0a32 32 0 1 1 64 0 32 32 0 1 1 -64 0zm32 16a16 16 0 1 0 0-32 16 16 0 1 0 0 32zm384-64c-8.8 0-16 7.2-16 16V416c0 8.8 7.2 16 16 16h32c8.8 0 16-7.2 16-16V224c0-8.8-7.2-16-16-16H576zm-32 16c0-17.7 14.3-32 32-32h32c17.7 0 32 14.3 32 32V416c0 17.7-14.3 32-32 32H576c-17.7 0-32-14.3-32-32V224z"/></svg>

<svg xmlns="http://www.w3.org/2000/svg" viewBox="0 0 640 512"><!--! Font Awesome Pro 6.3.0 by @fontawesome - https://fontawesome.com License - https://fontawesome.com/license (Commercial License) Copyright 2023 Fonticons, Inc. --><path d="M320 256C320 273.7 305.7 288 288 288C270.3 288 256 273.7 256 256C256 238.3 270.3 224 288 224C305.7 224 320 238.3 320 256zM288 272C296.8 272 304 264.8 304 256C304 247.2 296.8 240 288 240C279.2 240 272 247.2 272 256C272 264.8 279.2 272 288 272zM352 256C352 238.3 366.3 224 384 224C401.7 224 416 238.3 416 256C416 273.7 401.7 288 384 288C366.3 288 352 273.7 352 256zM384 240C375.2 240 368 247.2 368 256C368 264.8 375.2 272 384 272C392.8 272 400 264.8 400 256C400 247.2 392.8 240 384 240zM224 256C224 273.7 209.7 288 192 288C174.3 288 160 273.7 160 256C160 238.3 174.3 224 192 224C209.7 224 224 238.3 224 256zM192 272C200.8 272 208 264.8 208 256C208 247.2 200.8 240 192 240C183.2 240 176 247.2 176 256C176 264.8 183.2 272 192 272zM416 72C416 76.42 412.4 80 408 80H312V128H396.6C409.3 128 421.6 131.7 432.1 138.7L483.5 173C501.3 184.9 512 204.9 512 226.3V384C512 419.3 483.3 448 448 448H279.2C264.2 448 249.7 442.8 238.2 433.2L179.2 384H112C85.49 384 64 362.5 64 336V264H16V344C16 348.4 12.42 352 8 352C3.582 352 0 348.4 0 344V168C0 163.6 3.582 160 8 160C12.42 160 16 163.6 16 168V248H64V176C64 149.5 85.49 128 112 128H296V80H200C195.6 80 192 76.42 192 72C192 67.58 195.6 64 200 64H408C412.4 64 416 67.58 416 72zM80 336C80 353.7 94.33 368 112 368H184.1L248.4 420.9C257.1 428.1 267.9 432 279.2 432H448C474.5 432 496 410.5 496 384V226.3C496 210.2 487.1 195.2 474.6 186.3L423.2 152.1C415.4 146.8 406.1 144 396.6 144H112C94.33 144 80 158.3 80 176V336zM544 224C544 206.3 558.3 192 576 192H608C625.7 192 640 206.3 640 224V416C640 433.7 625.7 448 608 448H576C558.3 448 544 433.7 544 416V224zM560 224V416C560 424.8 567.2 432 576 432H608C616.8 432 624 424.8 624 416V224C624 215.2 616.8 208 608 208H576C567.2 208 560 215.2 560 224z"/></svg>
